!!!ONB: MCCC : IRS0102_02 : Extracted Monophonic Melody
!!!COM: Schumann, Robert
!!!OPR: 8 Novelletten
!!!OMV: 2
!!!SCT: Op.21
!!!ODT: 1838///
**kern
*staff1
=1
*clefG2
*k[f#c#]
*D:
*M2/4
16f#
16ff#
16dd
16f#
16g
16gg
16dd
16g
=2
16f#
16ff#
16dd
16f#
16f
16ff
16dd
16f
=3
16e
16ee
16dd
16e
16f#
16ff#
16dd
16f#
=4
16d
16dd
16a
16d
16A
16a
16f#
16A
=5
16A
16a
16e
16A
16A
16a
16d#
16A
=6
16G#
16g#
16d
16G#
16G
16g
16d
16G
=7
16F#
16f#
16d
16F#
16F
16f
16d
16F
=8
16E
16e
16c#
16E
4r
=9
16a
16aa
16ff#
16a
16b
16bb
16ff#
16b
=10
16a
16aa
16ff#
16a
16f#
16ff#
16cc#
16f#
=11
16g#
16gg#
16dd
16g#
16a
16aa
16ff
16a
=12
16f#
16ff#
16cc#
16f#
4r
=13
16cc#
16ccc#
16aa
16cc#
16dd
16ddd
16aa
16dd
=14
16cc#
16ccc#
16aa
16cc#
16a
16aa
16ee
16a
=15
16b
16bb
16ff#
16b
16cc#
16ccc#
16gg#
16cc#
=16
16a
16aa
16ee
16a
4r
=17
16A
16a
16f#
16A
16A
16a
16f#
16B
=18
16c
16a
16f#
16c
16c
16a
16d#
16c
=19
16B
16g#
16e
16B
16A#
16g
16d
16A#
=20
16A
16f#
16c
16A
16G
16e
16c#
16G
=21
16F#
16f#
16d
16F#
16F#
16f#
16d
16G
=22
16A
16f#
16d
16A
16A
16f#
16d#
16A
=23
16G
16g
16e
16G
16c
16a
16e
16c
=24
16B
16g
16e
16B
16B
16f#
16d#
16B
=25
16B
16b
16g#
16B
16B
16b
16g#
16c#
=26
16d
16b
16g#
16d
16d
16b
16f
16d
=27
16c#
16a#
16f#
16c#
16c
16a
16e
16c
=28
16B
16g#
16d
16B
16A
16f#
16d#
16A
=29
16G#
16g#
16e
16G#
16G#
16g#
16e
16A
=30
16B
16g#
16e
16B
16B
16g#
16f
16B
=31
16A
16a
16f#
16A
16d
16b
16f#
16d
=32
16c#
16a
16f#
16c#
16B
16g#
16f
16B
=33
16A
16a
16f#
16A
16A
16a
16f#
16B
=34
16c#
16cc#
16a
16c#
16c#
16cc#
16a
16f#
=35
16f#
16cc#
16g#
16f#
16f#
16cc#
16g#
16f#
=36
16e
16cc#
16g#
16e
16e
16cc#
16g#
16e
=37
16d
16cc#
16a
16d
16d
16cc#
16a
16d
=38
16d
16b
16a
16d
16d
16b
16g#
16d
=39
16d
16b
16f
16d
16d
16b
16f
16d
=40
16d
16a
16f#
16d
16d
16a
16f#
16d
=41
16d
16g#
16f
16d
16d
16g#
16f
16d
=42
16c#
16g#
16f#
16B
16A
16g#
16f#
16G#
=43
16F#
16cc#
16a#
16c#
16c#
16cc#
16a#
16d#
=44
16e
16cc#
16a#
16e
16e
16cc#
16g
16e
=45
16d#
16cc
16g#
16d#
16d
16b
16f#
16d
=46
16c#
16a#
16e
16c#
16B
16g#
16f
16B
=47
16A#
16a#
16f#
16A#
16A#
16a#
16f#
16B
=48
16c#
16a#
16f#
16c#
16c#
16a#
16g
16c#
=49
16B
16b
16g#
16B
16e
16cc#
16g#
16e
=50
16d#
16b
16g#
16d#
16d#
16a#
16g
16d#
=51
16d#
16dd#
16cc
16d#
16d#
16dd#
16cc
16f
=52
16f#
16dd#
16cc
16f#
16f#
16dd#
16a
16f#
=53
16f
16dd
16a#
16f
16e
16cc#
16g#
16e
=54
16d#
16cc
16f#
16d#
16c#
16a#
16g
16c#
=55
16c
16cc
16g#
16c
16c
16cc
16g#
16c#
=56
16d#
16cc
16g#
16d#
16d#
16cc
16a
16d#
=57
16c#
16cc#
16a#
16c#
16f#
16dd#
16a#
16f#
=58
16f
16cc#
16a#
16f
16d#
16cc
16a
16d#
=59
16c#
16cc#
16a#
16c#
16c#
16cc#
16a#
16d#
=60
16f
16ff
16cc#
16f
16f
16ff
16cc#
16a#
=61
16a#
16ff
16cc
16a#
16a#
16ff
16cc
16a#
=62
16g#
16ff
16cc
16g#
16g#
16ff
16cc
16g#
=63
16A#
16a#
16g#
16A#
16A#
16a#
16g#
16c
=64
16c#
16a#
16f#
16c#
16c#
16cc#
16a#
16f#
=65
16f#
16cc#
16g#
16f#
16f#
16cc#
16g#
16f#
=66
16f
16cc#
16g#
16f
16f
16cc#
16g#
16f
=67
16c#
16cc#
16g
16c#
16c#
16cc#
16g
16c#
=68
16e
16cc#
16a#
16e
16e
16cc#
16a#
16e
=69
16e
16dd
16a
16d
16d
16dd
16a
16e
=70
16f
16ff
16dd
16f
16f
16ff
16dd
16f
=71
16f
16ee
16dd
16e
16e
16ee
16dd
16f
=72
16g
16gg
16ee
16g
16g
16gg
16ee
16g
=73
16g
16ff
16ee
16f
16f
16ff
16ee
16g
=74
16a
16aa
16ff
16a
16a
16aa
16ff
16a
=75
16a
16aa#
16ff
16a
16a
16gg
16dd
16a
=76
16a
16aa
16ee
16a
16a
16ff
16cc
16a
=77
16a
16gg
16dd
16a
16a
16ee
16a#
16a
=78
16a
16ff
16cc
16a
16a
16dd
16a#
16a
=79
16a
16ee
16a#
16a
16a
16dd
16a#
16a
=80
16g
16cc#
16a
16g
16f
16a#
16g
16f
=81
16d
16g
16e
16d
16A#
16g
16e
16A#
=82
16G
16g
16e
16G
16G
16g
16d
16G
=83
16G
16g
16c#
16G
16G
16g
16c#
16A
=84
16A#
16g
16e
16A#
16A#
16g
16e
16A#
=85
16A#
16a#
16g
16A#
16A#
16a#
16g
16c
=86
16c#
16a#
16g
16c#
16c#
16a#
16g
16c#
=87
16c#
16a#
16f#
16c#
16c#
16a#
16f#
16d#
=88
16e
16cc#
16a#
16e
16e
16cc#
16a#
16e
=89
16e
16ee
16cc#
16e
16e
16ee
16cc#
16f#
=90
16g
16ee
16cc#
16g
16g
16ee
16cc#
16g
=91
16f#
16ff#
16dd
16f#
16g
16gg
16dd
16g
=92
16f#
16ff#
16dd
16f#
16f
16ff
16dd
16f
=93
16e
16ee
16dd
16e
16f#
16ff#
16dd
16f#
=94
16d
16dd
16a
16d
16A
16a
16f#
16A
=95
16A
16a
16e
16A
16A
16a
16d#
16A
=96
16G#
16g#
16d
16G#
16G
16g
16d
16G
=97
16F#
16f#
16d
16F#
16F
16f
16d
16F
=98
16E
16e
16c#
16E
4r
=99
16a
16aa
16ff#
16a
16b
16bb
16ff#
16b
=100
16a
16aa
16ff#
16a
16f#
16ff#
16cc#
16f#
=101
16g#
16gg#
16dd
16g#
16a
16aa
16ff
16a
=102
16f#
16ff#
16cc#
16f#
4r
=103
16cc#
16ccc#
16aa
16cc#
16dd
16ddd
16aa
16dd
=104
16cc#
16ccc#
16aa
16cc#
16a
16aa
16ee
16a
=105
16b
16bb
16ff#
16b
16cc#
16ccc#
16gg#
16cc#
=106
16a
16aa
16ee
16a
4r
=107
16c
16a
16f#
16c
16c
16b
16f#
16d
=108
16e
16cc
16f#
16e
16d
16b
16f#
16c
=109
16B
16g
16f#
16B
16G
16e
16B
16G
=110
16A
16f#
16e
16A
16F#
16d
16A
16F#
=111
16G
16e
16d
16G
16G
16f#
16d
16A
=112
16B
16g
16d
16B
16A
16f#
16d
16G
=113
16G
16e
16c#
16G
16A
16f
16c#
16A
=114
16F#
16d
16B
16F#
16G
16e
16B
16G
=115
16E
16c#
16A
16A#
16A
16f#
16d
16d#
=116
16d
[16b
16b_
16b]
16g
16ee
16cc
16cc#
=117
16f#
8.ff#
4r
=118
8r
16ff#
16a
16a
16aa
16ee
16a
=119
16cc
16aa
16ff#
16cc
16cc
16bb
16ff#
16dd
=120
16ee
16ccc
16ff#
16ee
16dd
16bb
16ff#
16cc
=121
16b
16gg
16ff#
16b
16g
16ee
16b
16g
=122
16a
16ff#
16ee
16a
16f#
16dd
16a
16f#
=123
16g
16ee
16dd
16g
16g
16ff#
16dd
16a
=124
16b
16gg
16dd
16b
16a
16ff#
16dd
16g
=125
16g
16ee
16cc#
16g
16a
16ff
16cc#
16a
=126
16f#
16dd
16b
16f#
16g
16ee
16b
16g
=127
16e
16cc#
16a
16a#
16a
16ff#
16dd
16dd#
=128
16dd
[16bb
16bb_
16bb]
16gg
16eee
16ccc
16ccc#
=129
16ff#
8.fff#
4r
=130
8r
16fff#
16aa
16aa
16aaa
16eee
16aa
=131
16ff#
16fff#
16ddd
16ff#
16gg
16ggg
16ddd
16gg
=132
16ff#
16fff#
16ddd
16ff#
16ff
16fff
16ddd
16ff
=133
16ff#
16fff#
16ddd
16ff#
16dd
16ddd
16aa
16dd
=134
16a
16aa
16ff#
16a
16g
16gg
16dd
16g
=135
16f#
16ff#
16dd
16f#
16g
16gg
16dd
16g
=136
16f#
16ff#
16dd
16f#
16f
16ff
16dd
16f
=137
16f#
16ff#
16dd
16f#
16d
16dd
16a
16d
=138
16A
16a
16f#
16A
16G
16g
16d
16G
=139
16F#
16f#
16d
16F#
16F#
16f#
16d
16F#
=140
2r
=141
4r
12c#
12d
12d#
=142
12e
12g#
12a
12cc#
12dd
12ee
=143
4ee
4a
=144
12g#
12a
12cc#
12dd
12ee
12ff#
=145
4ff#
8ee
8dd
=146
8cc#
8b
8a
8g#
=147
4f#
4e[
=148
4e]
8d#
8d
=149
4r
12c#
12d
12d#
=150
12e
12g#
12a
12cc#
12dd
12ee
=151
4r
4f#
=152
2g
=153
4r
12B
12c#
12d
=154
12f#
12g
12a#
12b
12cc#
12dd
=155
4gg
12B
12c#
12d
=156
12b
12r
12e
12a
12e
12g
=157
4f#
12F#
12G
12G#
=158
12A
12B
12c#
12d
12e
12f#
=159
4g#
4r
=160
12c#
12d
12e
12f
12g
12g#
=161
4a
4aa
=162
12f#
12a
12cc#
12ff#
12gg#
12aa
=163
4a
4aa
=164
12f#
12a
12cc#
12ff#
12gg#
12aa
=165
4cc
4ccc
=166
12cc
12dd#
12ee
12ff#
12gg
12ccc
=167
4ee
4eee
=168
12gg#
12ee
12cc#
12b
12f#
12g#
=169
6e
12f
12g#
12f#
12e
=170
12d
12B
12G#
12E
12D
12BB
=171
4r
12c#
12d
12d#
=172
12e
12g#
12a
12cc#
12dd
12ee
=173
4r
4a
=174
12g#
12a
12cc#
12dd
12ee
12ff#
=175
4ff#
8ee
8dd
=176
8cc#
8b
8a
8g#
=177
4f#
4e[
=178
4e]
8d#
8d
=179
4r
12c#
12d
12d#
=180
12e
12g#
12a
12cc#
12dd
12ee
=181
4r
4f#
=182
2g
=183
4r
12B
12c#
12d
=184
12f#
12g
12a#
12b
12cc#
12dd
=185
4gg
12B
12c#
12d
=186
12b
12r
12e
12a
12e
12g
=187
4f#
12F#
12G
12G#
=188
12A
12B
12c#
12d
12e
12f#
=189
4g#
4r
=190
12c#
12d
12e
12f
12g
12g#
=191
4a
4aa
=192
12f#
12a
12cc#
12ff#
12gg#
12aa
=193
4a
4aa
=194
12f#
12a
12cc#
12ff#
12gg#
12aa
=195
4cc
4ccc
=196
12cc
12dd#
12ee
12ff#
12gg
12ccc
=197
4ee
4eee
=198
12gg#
12ee
12cc#
12b
12f#
12g#
=199
6e
12f
12g#
12f#
12e
=200
12d
12B
12G#
12E
12D
12BB
=201
4r
12r
12g
12cc#
=202
[12dd
12dd]
12dd
4gg
=203
12r
12g
12e
[16d
16d]
[16e
16e]
=204
4f
12r
12c
12G
=205
4d
12r
12f
12a
=206
12a#[
12a#]
12a#
4ee
=207
12r
12e
12c#
16B
16B
16c#[
16c#]
=208
4d
12r
12A
12E
=209
4A#
12r
12d
12f
=210
4e
12r
12B
12G#
=211
4A#
12r
12d
12f
=212
4e
12r
12B
12G#
=213
4e
12r
12g
12a#
=214
4a
12r
12e
12c#
=215
4d#
12r
12g
12a#
=216
4a
12r
12e
12c#
=217
4r
12f#
12g
12g#
=218
12a
12cc#
12dd
12ff#
12gg
12aa
=219
4aa
4dd
=220
12cc#
12dd
12ff#
12gg
12aa
12bb
=221
4bb
8aa
8gg
=222
8ff#
8ee
8dd
8cc#
=223
4b
[4a
=224
4a]
8g#
8g
=225
4r
12f#
12g
12g#
=226
12a
12cc#
12dd
12ff#
12gg
12aa
=227
4r
4b
=228
2cc
=229
4r
12e
12f#
12g
=230
12b
12cc
12dd#
12ee
12ff#
12gg
=231
4r
12r
12f#
12g
=232
12ff#
12ee
12a
12dd
12a
12cc
=233
4b
12B
12c
12c#
=234
12d
12e
12f#
12g
12a
12b
=235
4cc#
4r
=236
12f#
12g
12a
12a#
12b#
12cc#
=237
4dd
4ddd
=238
12b
12dd
12ff#
12bb
12ccc#
12ddd
=239
4dd
4ddd
=240
12b
12dd
12ff#
12bb
12ccc#
12ddd
=241
4ff
4fff
=242
12ff
12gg#
12aa
12bb
12ccc
12fff
=243
4aa
4aaa
=244
12ccc#
12aa
12ff#
12ee
12b
12cc#
=245
6a
12a#
12cc#
12b
12a
=246
12g
12e
12c#
12A
12G
12E
=247
16A
16a
16f#
16A
16A
16a
16f#
16B
=248
16c
16a
16f#
16c
16c
16a
16d#
16c
=249
16B
16g#
16e
16B
16A#
16g
16d
16A#
=250
16A
16f#
16c
16A
16G
16e
16c#
16G
=251
16F#
16f#
16d
16F#
16F#
16f#
16d
16G
=252
16A
16f#
16d
16A
16A
16f#
16d#
16A
=253
16G
16g
16e
16G
16c
16a
16e
16c
=254
16B
16g
16e
16B
16B
16f#
16d#
16B
=255
16B
16b
16g#
16B
16B
16b
16g#
16c#
=256
16d
16b
16g#
16d
16d
16b
16f
16d
=257
16c#
16a#
16f#
16c#
16c
16a
16e
16c
=258
16B
16g#
16d
16B
16A
16f#
16d#
16A
=259
16G#
16g#
16e
16G#
16G#
16g#
16e
16A
=260
16B
16g#
16e
16B
16B
16g#
16f
16B
=261
16A
16a
16f#
16A
16d
16b
16f#
16d
=262
16c#
16a
16f#
16c#
16B
16g#
16f
16B
=263
16A
16a
16f#
16A
16A
16a
16f#
16B
=264
16c#
16cc#
16a
16c#
16c#
16cc#
16a
16f#
=265
4f#
16r
16cc#
16g#
16f#
=266
4e
16r
16cc#
16g#
16e
=267
16d
16cc#
16a
16d
16d
16cc#
16a
16d
=268
16d
16b
16a
16d
16d
16b
16g#
16d
=269
16d
16b
16f
16d
16d
16b
16f
16d
=270
16d
16a
16f#
16d
16d
16a
16f#
16d
=271
16d
16g#
16f
16d
16d
16g#
16f
16d
=272
16c#
16g#
16f#
16B
16A
16g#
16f#
16G#
=273
16F#
16cc#
16a#
16c#
16c#
16cc#
16a#
16d#
=274
16e
16cc#
16a#
16e
16e
16cc#
16g
16e
=275
16d#
16cc
16g#
16d#
16d
16b
16f#
16d
=276
16c#
16a#
16e
16c#
16B
16g#
16f
16B
=277
16A#
16a#
16f#
16A#
16A#
16a#
16f#
16B
=278
16c#
16a#
16f#
16c#
16c#
16a#
16g
16c#
=279
16B
16b
16g#
16B
16e
16cc#
16g#
16e
=280
16d#
16b
16g#
16d#
16d#
16a#
16g
16d#
=281
16d#
16dd#
16cc
16d#
16d#
16dd#
16cc
16f
=282
16f#
16dd#
16cc
16f#
16f#
16dd#
16a
16f#
=283
16f
16dd
16a#
16f
16e
16cc#
16g#
16e
=284
16d#
16cc
16f#
16d#
16c#
16a#
16g
16c#
=285
16c
16cc
16g#
16c
16c
16cc
16g#
16c#
=286
16d#
16cc
16g#
16d#
16d#
16cc
16a
16d#
=287
16c#
16cc#
16a#
16c#
16f#
16dd#
16a#
16f#
=288
16f
16cc#
16a#
16f
16d#
16cc
16a
16d#
=289
16c#
16cc#
16a#
16c#
16c#
16cc#
16a#
16d#
=290
16f
16ff
16cc#
16f
16f
16ff
16cc#
16a#
=291
16a#
16ff
16cc
16a#
16a#
16ff
16cc
16a#
=292
16g#
16ff
16cc
16g#
16g#
16ff
16cc
16g#
=293
16A#
16a#
16g#
16A#
16A#
16a#
16g#
16c
=294
16c#
16a#
16f#
16c#
16c#
16cc#
16a#
16f#
=295
16f#
16cc#
16g#
16f#
16f#
16cc#
16g#
16f#
=296
16f
16cc#
16g#
16f
16f
16cc#
16g#
16f
=297
16c#
16cc#
16g
16c#
16c#
16cc#
16g
16c#
=298
16e
16cc#
16a#
16e
16e
16cc#
16a#
16e
=299
16e
16dd
16a
16d
16d
16dd
16a
16e
=300
16f
16ff
16dd
16f
16f
16ff
16dd
16f
=301
16f
16ee
16dd
16e
16e
16ee
16dd
16f
=302
16g
16gg
16ee
16g
16g
16gg
16ee
16g
=303
16g
16ff
16ee
16f
16f
16ff
16ee
16g
=304
16a
16aa
16ff
16a
16a
16aa
16ff
16a
=305
16a
16aa#
16ff
16a
16a
16gg
16dd
16a
=306
16a
16aa
16ee
16a
16a
16ff
16cc
16a
=307
16a
16gg
16dd
16a
16a
16ee
16a#
16a
=308
16a
16ff
16cc
16a
16a
16dd
16a#
16a
=309
16a
16ee
16a#
16a
16a
16dd
16a#
16a
=310
16g
16cc#
16a
16g
16f
16a#
16g
16f
=311
16d
16g
16e
16d
16A#
16g
16e
16A#
=312
16G
16g
16e
16G
16G
16g
16d
16G
=313
16G
16g
16c#
16G
16G
16g
16c#
16A
=314
16A#
16g
16e
16A#
16A#
16g
16e
16A#
=315
16A#
16a#
16g
16A#
16A#
16a#
16g
16c
=316
16c#
16a#
16g
16c#
16c#
16a#
16g
16c#
=317
16c#
16a#
16f#
16c#
16c#
16a#
16f#
16d#
=318
16e
16cc#
16a#
16e
16e
16cc#
16a#
16e
=319
16e
16ee
16cc#
16e
16e
16ee
16cc#
16f#
=320
16g
16ee
16cc#
16g
16g
16ee
16cc#
16g
=321
16f#
16ff#
16dd
16f#
16g
16gg
16dd
16g
=322
16f#
16ff#
16dd
16f#
16f
16ff
16dd
16f
=323
16e
16ee
16dd
16e
16f#
16ff#
16dd
16f#
=324
16d
16dd
16a
16d
16A
16a
16f#
16A
=325
16A
16a
16e
16A
16A
16a
16d#
16A
=326
16G#
16g#
16d
16G#
16G
16g
16d
16G
=327
16F#
16f#
16d
16F#
16F
16f
16d
16F
=328
16E
16e
16c#
16E
4r
=329
16a
16aa
16ff#
16a
16b
16bb
16ff#
16b
=330
16a
16aa
16ff#
16a
16f#
16ff#
16cc#
16f#
=331
16g#
16gg#
16dd
16g#
16a
16aa
16ff
16a
=332
16f#
16ff#
16cc#
16f#
4r
=333
16cc#
16ccc#
16aa
16cc#
16dd
16ddd
16aa
16dd
=334
16cc#
16ccc#
16aa
16cc#
16a
16aa
16ee
16a
=335
16b
16bb
16ff#
16b
16cc#
16ccc#
16gg#
16cc#
=336
16a
16aa
16ee
16a
4r
=337
16c
16a
16f#
16c
16c
16b
16f#
16d
=338
4e
4r
=339
16B
16g
16f#
16B
16G
16e
16B
16G
=340
16A
16f#
16e
16A
16F#
16d
16A
16F#
=341
16G
16e
16d
16G
16G
16f#
16d
16A
=342
16B
16g
16d
16B
16A
16f#
16d
16G
=343
16G
16e
16c#
16G
16A
16f
16c#
16A
=344
16F#
16d
16B
16F#
16G
16e
16B
16G
=345
16E
16c#
16A
16A#
16A
16f#
16d
16d#
=346
16d
[16b
16b_
16b]
16g
16ee
16cc
16cc#
=347
8r
16dd
16f#
16b
16bb
16gg
16b
=348
16a
8.aa
4r
=349
16cc
16aa
16ff#
16cc
16cc
16bb
16ff#
16dd
=350
16ee
16ccc
16ff#
16ee
16dd
16bb
16ff#
16cc
=351
16b
16gg
16ff#
16b
16g
16ee
16b
16g
=352
16a
16ff#
16ee
16a
16f#
16dd
16a
16f#
=353
16g
16ee
16dd
16g
16g
16ff#
16dd
16a
=354
16b
16gg
16dd
16b
16a
16ff#
16dd
16g
=355
16g
16ee
16cc#
16g
16a
16ff
16cc#
16a
=356
16f#
16dd
16b
16f#
16g
16ee
16b
16g
=357
16e
16cc#
16a
16a#
16a
[16ff#
16ff#_
16ff#]
=358
16dd
16bb
16gg
16gg#
16gg
16eee
16ccc
16ccc#
=359
8r
16ddd
16ff#
16bb
16bbb
16ggg
16bb
=360
16aa
8aaa
16aa
16aa
16aaa
16eee
16aa
=361
16ff#
16fff#
16ddd
16ff#
16gg
16ggg
16ddd
16gg
=362
16ff#
16fff#
16ddd
16ff#
16ff
16fff
16ddd
16ff
=363
16ff#
16fff#
16ddd
16ff#
16dd
16ddd
16aa
16dd
=364
16a
16aa
16ff#
16a
16g
16gg
16dd
16g
=365
16f#
16ff#
16dd
16f#
16g
16gg
16dd
16g
=366
16f#
16ff#
16dd
16f#
16f
16ff
16dd
16f
=367
16f#
16ff#
16dd
16f#
16d
16dd
16a
16d
=368
16A
16a
16f#
16A
16G
16g
16d
16G
=369
16F#
16f#
16d
16F#
16F#
16f#
16d
16F#
=370
16f#
16ff#
16dd
16f#
16f#
16ff#
16dd
16f#
=371
4fff#
4r
=372
4dd
4dd
=373
[2dd
=374
2dd]
==
*-
